Newaita-dark/.DP/32/shutter-panel.svg

<svg xmlns="http://www.w3.org/2000/svg" xmlns:xlink="http://www.w3.org/1999/xlink" width="32px" height="32px" viewBox="0 0 32 32" version="1.1">
<g id="surface1">
<path style=" stroke:none;fill-rule:nonzero;fill:rgb(93.333334%,93.333334%,93.333334%);fill-opacity:0.392157;" d="M 10.988281 15.46875 L 5.113281 21.34375 C 6.324219 23.894531 8.410156 25.9375 10.988281 27.097656 Z M 10.988281 15.46875 "/>
<path style=" stroke:none;fill-rule:nonzero;fill:rgb(93.333334%,93.333334%,93.333334%);fill-opacity:0.392157;" d="M 11.890625 19.152344 L 11.890625 27.460938 C 14.550781 28.410156 17.46875 28.378906 20.113281 27.371094 Z M 11.890625 19.152344 "/>
<path style=" stroke:none;fill-rule:nonzero;fill:rgb(93.333334%,93.333334%,93.333334%);fill-opacity:1;" d="M 15.855469 4.285156 C 15.765625 4.285156 15.675781 4.285156 15.582031 4.285156 C 14.246094 4.320312 12.921875 4.589844 11.65625 5.074219 L 19.878906 13.292969 L 19.878906 4.984375 C 18.578125 4.519531 17.21875 4.28125 15.855469 4.285156 Z M 15.855469 4.285156 "/>
<path style=" stroke:none;fill-rule:nonzero;fill:rgb(93.333334%,93.333334%,93.333334%);fill-opacity:1;" d="M 20.777344 5.347656 L 20.777344 16.976562 L 26.65625 11.101562 C 25.445312 8.550781 23.359375 6.507812 20.777344 5.347656 Z M 20.777344 5.347656 "/>
<path style=" stroke:none;fill-rule:nonzero;fill:rgb(93.333334%,93.333334%,93.333334%);fill-opacity:1;" d="M 10.757812 5.445312 C 8.207031 6.65625 6.15625 8.746094 4.996094 11.328125 L 16.640625 11.328125 Z M 10.757812 5.445312 "/>
<path style=" stroke:none;fill-rule:nonzero;fill:rgb(93.333334%,93.333334%,93.333334%);fill-opacity:1;" d="M 27.035156 11.996094 L 18.8125 20.214844 L 27.121094 20.214844 C 28.070312 17.558594 28.039062 14.636719 27.035156 11.996094 Z M 27.035156 11.996094 "/>
<path style=" stroke:none;fill-rule:nonzero;fill:rgb(93.333334%,93.333334%,93.333334%);fill-opacity:1;" d="M 4.648438 12.230469 C 3.699219 14.886719 3.730469 17.808594 4.734375 20.449219 L 12.957031 12.230469 Z M 4.648438 12.230469 "/>
<path style=" stroke:none;fill-rule:nonzero;fill:rgb(93.333334%,93.333334%,93.333334%);fill-opacity:1;" d="M 15.128906 21.117188 L 21.003906 26.992188 C 23.558594 25.785156 25.597656 23.699219 26.757812 21.117188 Z M 15.128906 21.117188 "/>
</g>
</svg>

<svg xmlns="http://www.w3.org/2000/svg" width="32pt" height="32pt" viewBox="0 0 32 32"><path d="M10.992 15.469l-5.879 5.875a11.917 11.917 0 0 0 5.88 5.754zm0 0M11.89 19.148v8.313c2.66.95 5.579.918 8.223-.09zm0 0" fill="#424242"/><path d="M15.855 4.285h-.273a11.87 11.87 0 0 0-3.926.79l8.223 8.222V4.984c-1.3-.464-2.66-.703-4.024-.699zm0 0M20.777 5.348v11.629l5.88-5.875a11.917 11.917 0 0 0-5.88-5.754zm0 0M10.758 5.445a11.924 11.924 0 0 0-5.762 5.883h11.645zm0 0M27.035 11.996l-8.223 8.223h8.31c.948-2.66.917-5.582-.087-8.223zm0 0M4.648 12.227c-.949 2.66-.918 5.578.086 8.222l8.223-8.222zm0 0M15.129 21.117l5.879 5.875a11.87 11.87 0 0 0 5.75-5.875zm0 0" fill="#bdbdbd"/></svg>
